X:523
T:Reel 523
M:4/4
K:Gmaj
L:1/8
d>c (3BAB G>B (3BAB |c>B (3BcB A2a2| (3efg f>B  (3BcB c>d (3BcB | (3efe d>B  (3efe d2| (3BcB d>G  (3BcB  (3dBB | (3efg d>B  (3BAB d2|e>c (3cBc B>A (3AGA |e>A (3AAA e2:|
